X: 5
T: The Trip To Athlone
T: The Newport Lasses
T: O'Brien's Fancy
T: Gearrchaile Bhaile U\'i BhFiach\'ain
M: 6/8
L: 1/8
R: jig
K: D
|: ABA  D2d | {e}dcA AGF  |    ABG  ABc |  dAB =cde |  ABA D2d  | {e}dcA AGF |
|  GFG  Ade |1   fdc d2d :|2   fdc  d2e |: fed  edc |  Adc Ade  |    fed efg |
|  AB=c def |   ~g3  age  | {a}ed=c AGF | ~G3   Ade |1 fdc d2e :|2   fdc d2d |]
%%sep 1 1 500
